packages/gestalt-icons-android/vr-theme/ic_vr_arrow-left-curved_gestalt.svg

<svg width="24" height="24" viewBox="0 0 24 24" fill="none" xmlns="http://www.w3.org/2000/svg">
<path fill-rule="evenodd" clip-rule="evenodd" d="M4.41436 10.9999L8.70726 15.2928L7.29305 16.7071L0.585938 9.99995L7.29304 3.29285L8.70726 4.70706L4.41437 8.99995H18.0002C20.7616 8.99995 23.0002 11.2385 23.0002 13.9999V20H21.0002V13.9999C21.0002 12.3431 19.657 10.9999 18.0002 10.9999H4.41436Z" fill="black"/>
</svg>

<svg xmlns="http://www.w3.org/2000/svg" width="24" height="24"><path d="m4.41 11 4.3 4.3-1.42 1.4L.6 10l6.7-6.7 1.42 1.4L4.4 9H18a5 5 0 0 1 5 5v6h-2v-6a3 3 0 0 0-3-3z"/></svg>
